packages/rn-bitcoin-icons/svg/outline/home.svg

<svg width="24" height="24" viewBox="0 0 24 24" fill="none" xmlns="http://www.w3.org/2000/svg">
<path d="M12.3911 4.26185C11.986 3.84943 11.3167 3.86534 10.9317 4.29654L4.75406 11.2155C4.59044 11.3987 4.5 11.6358 4.5 11.8815V19.5C4.5 20.0523 4.94772 20.5 5.5 20.5H8.5C9.05228 20.5 9.5 20.0523 9.5 19.5V16C9.5 15.4477 9.94772 15 10.5 15H13.5C14.0523 15 14.5 15.4477 14.5 16V19.5C14.5 20.0523 14.9477 20.5 15.5 20.5H18.5C19.0523 20.5 19.5 20.0523 19.5 19.5V11.909C19.5 11.6469 19.3971 11.3953 19.2134 11.2083L12.3911 4.26185Z" stroke="black"/>
</svg>

<svg xmlns="http://www.w3.org/2000/svg" fill="none" viewBox="0 0 24 24" stroke="currentColor">
  <path d="M12.391 4.262a1 1 0 00-1.46.035l-6.177 6.919a1 1 0 00-.254.666V19.5a1 1 0 001 1h3a1 1 0 001-1V16a1 1 0 011-1h3a1 1 0 011 1v3.5a1 1 0 001 1h3a1 1 0 001-1v-7.591a1 1 0 00-.287-.7l-6.822-6.947z"/>
</svg>
